X:1
T:Vals "Gladeligen skola vi släcka ut ljuset"
S:efter Anders Peter Roos
O:Hägerstad, Östergötland 
R:Vals
B:Ög 17
B:http://www.smus.se/earkiv/fmk/browselarge.php?lang=sw&katalogid=%C3%96g+17&bildnr=00003
M:3/8
L:1/8
K:D
A | d3/2.e/2.f/2.g/2 | (ab).g | (fg).e | (df).A | d3/2.e/2.f/2.g/2 | (ab).g | (fg).e | d2 ::
d | .e(c/2B/2).c/2.e/2 | g2 g | .f(d/2A/2).d/2.f/2 | a2 a | (bg).g | (af).f | (ge).e | d2 :|]

